X: 1
T: String Quartet in D Minor opus 103 no 1 mvt 3
C: Franz Joseph Haydn
%%abc-version 2.0
%%abcx-abcm2ps-target-version 5.9.1 (29 Sep 2008)
%%abc-creator hum2abc beta
%%abcx-conversion-date 2021/02/14 14:38:23
%%abc-copyright Copyright (c) 1994, 2000 Center for Computer Assisted Research in the Humanities
%%abc-edited-by Frances Bennion
%%abcx-initial-encoding-date 1997/04/15
%%gracespace 0 6 6
%%humdrum-veritas 4013439606
%%humdrum-veritas-data 2221550457
%%linebreak <none>
%%barnumbers 0
L: 1/8
M: 4/4
N: Derived from op103-03.krn
Q: "Menuetto + Trio"
%%staves [1 2 3 4]
V: 1
V: 2
V: 3
V: 4
K: A
[V:1]e2 zc dB AG [I:setbarnb2] |
[V:2]e2 zc dB AG |
[V:3]e2 zc dB AG |
[V:4]e2 zc dB AG |
[V:1]A2 z6 |
[V:2]A2 z6 |
[V:3]A2 z6 |
[V:4]A2 z6 |
[V:1]d2 zB c2 zA |
[V:2]d2 zB c2 zA |
[V:3]d2 zB c2 zA |
[V:4]d2 zB c2 zA |
[V:1]B2 z6 |]
[V:2]B2 z6 |]
[V:3]B2 z6 |]
[V:4]B2 z6 |]

